public/svg/gear.svg

<svg xmlns="http://www.w3.org/2000/svg" width="35" height="35" viewBox="0 0 35 35" fill="none">
<path opacity="0.3" d="M27.1578 14.2188H27.3438C29.1559 14.2188 30.625 15.6878 30.625 17.5C30.625 19.3122 29.1559 20.7812 27.3438 20.7812L27.2497 20.7812C26.9663 20.7824 26.7107 20.9517 26.5991 21.2121C26.477 21.4888 26.5333 21.7993 26.7281 21.9985L26.7933 22.0637C27.4094 22.6791 27.7556 23.5143 27.7556 24.3852C27.7556 25.256 27.4094 26.0912 26.7941 26.7058C26.1787 27.3219 25.3435 27.6681 24.4727 27.6681C23.6018 27.6681 22.7666 27.3219 22.1516 26.7062L22.0946 26.6491C21.8868 26.4458 21.5763 26.3895 21.2996 26.5116C21.0392 26.6232 20.8699 26.8788 20.8688 27.1578V27.3438C20.8688 29.1559 19.3997 30.625 17.5875 30.625C15.7753 30.625 14.3063 29.1559 14.3063 27.3438C14.2997 26.979 14.1152 26.721 13.7771 26.5944C13.5112 26.477 13.2007 26.5333 13.0015 26.7281L12.9363 26.7933C12.3209 27.4094 11.4857 27.7556 10.6148 27.7556C9.74397 27.7556 8.90882 27.4094 8.29422 26.7941C7.67808 26.1787 7.33187 25.3435 7.33187 24.4727C7.33187 23.6018 7.67808 22.7666 8.29379 22.1516L8.35093 22.0946C8.55416 21.8868 8.61047 21.5763 8.48844 21.2996C8.37682 21.0392 8.12118 20.8699 7.84219 20.8688H7.65625C5.84407 20.8688 4.375 19.3997 4.375 17.5875C4.375 15.7753 5.84407 14.3063 7.65625 14.3063C8.02095 14.2997 8.27896 14.1152 8.40562 13.7771C8.52297 13.5112 8.46666 13.2007 8.27191 13.0015L8.20672 12.9363C7.59058 12.3209 7.24437 11.4857 7.24437 10.6148C7.24437 9.74397 7.59058 8.90882 8.20586 8.29422C8.82132 7.67808 9.65647 7.33187 10.5273 7.33187C11.3982 7.33187 12.2334 7.67808 12.8484 8.29379L12.9054 8.35093C13.1132 8.55416 13.4237 8.61047 13.6896 8.49312L13.8467 8.46001C14.0735 8.33713 14.2177 8.09961 14.2188 7.84219V7.65625C14.2188 5.84407 15.6878 4.375 17.5 4.375C19.3122 4.375 20.7812 5.84407 20.7812 7.65625L20.7812 7.75033C20.7824 8.03368 20.9517 8.28932 21.2229 8.40562C21.4888 8.52297 21.7993 8.46666 21.9985 8.27191L22.0637 8.20672C22.6791 7.59058 23.5143 7.24437 24.3852 7.24437C25.256 7.24437 26.0912 7.59058 26.7058 8.20586C27.3219 8.82132 27.6681 9.65647 27.6681 10.5273C27.6681 11.3982 27.3219 12.2334 26.7062 12.8484L26.6491 12.9054C26.4458 13.1132 26.3895 13.4237 26.5069 13.6896L26.54 13.8467C26.6629 14.0735 26.9004 14.2177 27.1578 14.2188Z" fill="#1B5BF7"/>
<path fill-rule="evenodd" clip-rule="evenodd" d="M17.5 21.875C19.9162 21.875 21.875 19.9162 21.875 17.5C21.875 15.0838 19.9162 13.125 17.5 13.125C15.0838 13.125 13.125 15.0838 13.125 17.5C13.125 19.9162 15.0838 21.875 17.5 21.875Z" fill="#1B5BF7"/>
</svg>

<svg xmlns="http://www.w3.org/2000/svg" width="35" height="35" fill="#1b5bf7" xmlns:v="https://vecta.io/nano"><path opacity=".3" d="M27.158 14.219h.186a3.28 3.28 0 1 1 0 6.562h-.094a.71.71 0 0 0-.651.431c-.122.277-.066.587.129.786l.065.065a3.28 3.28 0 0 1 .001 4.642 3.28 3.28 0 0 1-4.643 0l-.057-.057c-.208-.203-.518-.26-.795-.137a.71.71 0 0 0-.431.646v.186a3.28 3.28 0 1 1-6.562 0 .76.76 0 0 0-.529-.749c-.266-.117-.576-.061-.776.134l-.065.065a3.28 3.28 0 0 1-4.642.001 3.28 3.28 0 0 1 0-4.643l.057-.057c.203-.208.26-.518.138-.795a.71.71 0 0 0-.646-.431h-.186a3.28 3.28 0 1 1 0-6.562.76.76 0 0 0 .749-.529c.117-.266.061-.576-.134-.776l-.065-.065a3.28 3.28 0 0 1-.001-4.642 3.28 3.28 0 0 1 4.643 0l.057.057a.71.71 0 0 0 .784.142l.157-.033a.71.71 0 0 0 .372-.618v-.186a3.28 3.28 0 1 1 6.562 0v.094c.001.283.171.539.442.655.266.117.576.061.776-.134l.065-.065a3.28 3.28 0 0 1 4.642-.001 3.28 3.28 0 0 1 0 4.643l-.057.057a.71.71 0 0 0-.142.784l.033.157a.71.71 0 0 0 .618.372z"/><path fill-rule="evenodd" d="M17.5 21.875c2.416 0 4.375-1.959 4.375-4.375s-1.959-4.375-4.375-4.375-4.375 1.959-4.375 4.375 1.959 4.375 4.375 4.375z"/></svg>
